actions/22x22-dark/insert-horizontal-rule.svg

<svg xmlns="http://www.w3.org/2000/svg" viewBox="0 0 22 22">
 <defs id="defs3051">
   <style type="text/css" id="current-color-scheme">
     .ColorScheme-Text {
       color:#f2f2f2;
     }
     </style>
 </defs>
   <path
      style="fill:currentColor;fill-opacity:1;stroke:none"
      d="m3 3v7h1 15v-1-5-1h-15zm1 1h1v2h1v-2h3v2h1v-2h3v2h1v-2h4v5h-14zm12 10v2h-2v1h2v2h1v-2h2v-1h-2v-2z"
      class="ColorScheme-Text" />
</svg>

<svg xmlns="http://www.w3.org/2000/svg" viewBox="0 0 22 22">
  <defs id="defs3051">
    <style type="text/css" id="current-color-scheme">
      .ColorScheme-Text {
        color:#f2f2f2;
      }
      </style>
  </defs>
 <path 
     style="fill:currentColor;fill-opacity:1;stroke:none" 
     d="M 3 3 L 3 10 L 4 10 L 19 10 L 19 9 L 19 4 L 19 3 L 4 3 L 3 3 z M 4 4 L 5 4 L 5 6 L 6 6 L 6 4 L 9 4 L 9 6 L 10 6 L 10 4 L 13 4 L 13 6 L 14 6 L 14 4 L 18 4 L 18 9 L 4 9 L 4 4 z M 16 14 L 16 16 L 14 16 L 14 17 L 16 17 L 16 19 L 17 19 L 17 17 L 19 17 L 19 16 L 17 16 L 17 14 L 16 14 z "
     class="ColorScheme-Text"
     />
</svg>
